X:1939
L:1/8
M:6/8
K:C
 C2 E CDE | FFF FGA | G2 A GAB | d2 c GFE | C2 E CDE | F2 F FFA | G2 A GAB | c3 c3 || 
 !slide![ee]2- [de] ([ee]2 d) | cBA G3 | G>Bc Bcc | d3 !slide!d3 | !slide![ee]2- [de] ([ee]2 d) | 
 cBA G3 | G>Bc Bcd | c3 c3 ||

